src/22/panel/livewallpaper-indicator.svg

<svg xmlns="http://www.w3.org/2000/svg" width="22" height="22" version="1">
 <defs>
  <style id="current-color-scheme" type="text/css">
   .ColorScheme-Text { color:#dfdfdf; } .ColorScheme-Highlight { color:#4285f4; }
  </style>
 </defs>
 <path style="fill:currentColor" class="ColorScheme-Text" d="M 3.8007813,4 C 3.3575812,4 3,4.362375 3,4.8125 l 0,11.375 C 3,16.637625 3.3575812,17 3.8007813,17 L 6,17 6,18.1875 C 6,18.637625 6.3723177,19 6.8339844,19 l 8.3320316,0 C 15.627682,19 16,18.637625 16,18.1875 L 16,17 18.199219,17 C 18.642419,17 19,16.637625 19,16.1875 L 19,4.8125 C 19,4.362375 18.642419,4 18.199219,4 L 3.8007813,4 Z M 4,5 18,5 18,16 4,16 4,5 Z m 6,1 A 1,1 0 0 0 9,7 1,1 0 0 0 10,8 1,1 0 0 0 11,7 1,1 0 0 0 10,6 Z m 5,0 a 2,2 0 0 0 -2,2 2,2 0 0 0 2,2 2,2 0 0 0 2,-2 2,2 0 0 0 -2,-2 z M 6.5,9 A 1.5,1.5 0 0 0 5,10.5 1.5,1.5 0 0 0 6.5,12 1.5,1.5 0 0 0 8,10.5 1.5,1.5 0 0 0 6.5,9 Z m 8.964844,2.400391 a 0.5,0.5 0 0 0 -0.464844,0.5 0.5,0.5 0 0 0 0.5,0.5 0.5,0.5 0 0 0 0.5,-0.5 0.5,0.5 0 0 0 -0.5,-0.5 0.5,0.5 0 0 0 -0.03516,0 z M 12,12 a 1,1 0 0 0 -1,1 1,1 0 0 0 1,1 1,1 0 0 0 1,-1 1,1 0 0 0 -1,-1 z"/>
</svg>

<svg xmlns="http://www.w3.org/2000/svg" width="22" height="22" version="1"><defs><style id="current-color-scheme" type="text/css"></style></defs><path d="M3.8 4c-.442 0-.8.362-.8.813v11.375c0 .45.358.812.8.812H6v1.188c0 .45.372.812.834.812h8.332a.822.822 0 0 0 .834-.813V17h2.2c.442 0 .8-.362.8-.813V4.813A.805.805 0 0 0 18.2 4H3.8zM4 5h14v11H4V5zm6 1a1 1 0 0 0-1 1 1 1 0 0 0 1 1 1 1 0 0 0 1-1 1 1 0 0 0-1-1zm5 0a2 2 0 0 0-2 2 2 2 0 0 0 2 2 2 2 0 0 0 2-2 2 2 0 0 0-2-2zM6.5 9A1.5 1.5 0 0 0 5 10.5 1.5 1.5 0 0 0 6.5 12 1.5 1.5 0 0 0 8 10.5 1.5 1.5 0 0 0 6.5 9zm8.965 2.4a.5.5 0 0 0-.465.5.5.5 0 0 0 .5.5.5.5 0 0 0 .5-.5.5.5 0 0 0-.5-.5.5.5 0 0 0-.035 0zM12 12a1 1 0 0 0-1 1 1 1 0 0 0 1 1 1 1 0 0 0 1-1 1 1 0 0 0-1-1z" fill="currentColor" color="#323232"/></svg>
